!!!COA:	Josquin des Prez
!!!CDT:	~1450-1521/08/27
!!!OTL@@LAT: Magnificat tertii toni
!!!OTL1@@LAT: Et exsultavit spiritus me
!!!OTL2@@LAT: Quia fecit mihi magna
!!!OTL3@@LAT: Fecit potentiam
!!!OTL4@@LAT: Esurientes implevit boni
!!!OTL5@@LAT: Sicut locutus est
!!!OTL6@@LAT: Sicut erat in principi
!!!AGN:	Motet
!!!SCT:	NJE 20.1
!!!SCA:	New Josquin Edition 20.1
!!!voices:	4
**kern	**kern	**kern	**kern
*staff4	*staff3	*staff2	*staff1
*Ivox	*Ivox	*Ivox	*Ivox
*I"Bassus	*I"Tenor	*I"Altus	*I"Superius
*I'B	*I'T	*I'A	*I'S
*>[A,B,C,D,E,F]	*>[A,B,C,D,E,F]	*>[A,B,C,D,E,F]	*>[A,B,C,D,E,F]
*>Part1[A]	*>Part1[A]	*>Part1[A]	*>Part1[A]
*>Part2[B]	*>Part2[B]	*>Part2[B]	*>Part2[B]
*>Part3[C]	*>Part3[C]	*>Part3[C]	*>Part3[C]
*>Part4[D]	*>Part4[D]	*>Part4[D]	*>Part4[D]
*>Part5[E]	*>Part5[E]	*>Part5[E]	*>Part5[E]
*>Part6[F]	*>Part6[F]	*>Part6[F]	*>Part6[F]
*>A	*>A	*>A	*>A
*clefF4	*clefGv2	*clefGv2	*clefG2
*k[]	*k[]	*k[]	*k[]
*M2/1	*M2/1	*M2/1	*M2/1
*met(C|)	*met(C|)	*met(C|)	*met(C|)
!!section: Et exsultavit spiritus meus
!!!OMD: Et exsultavit spiritus meus
=1-	=1-	=1-	=1-
0r	2.G/	0r	[0d
.	4A/	.	.
.	2B\	.	.
.	[2c\	.	.
=2	=2	=2	=2
0r	2c\]	0r	1d]
.	2B\	.	.
.	2c\	.	[1e
.	[2e\	.	.
=3	=3	=3	=3
0r	4e\]	0r	0e]
.	4d\	.	.
.	4c\	.	.
.	4B\	.	.
.	1A	.	.
=4	=4	=4	=4
[0GG	0G	2.G/	1.g
.	.	4A/	.
.	.	2B\	.
.	.	[2c\	4f/
.	.	.	4e/
=5	=5	=5	=5
1GG]	0r	2c\]	1d
.	.	2B\	.
[1AA	.	2c\	2c/
.	.	[2e\	[2cc\
=6	=6	=6	=6
0AA]	0r	4e\]	4cc\]
.	.	4d\	4b\
.	.	4c\	4a/
.	.	4B\	4g/
.	.	1A	3a/V
.	.	.	3e/
.	.	.	3f/Z
=7	=7	=7	=7
2.C/	[0G	4G/	1g
.	.	4F/	.
.	.	4E/	.
4D\	.	4D/	.
2E\	.	2C/	1r
[2F\	.	2D/	.
=8	=8	=8	=8
2F\]	1G]	1C	0r
2E\	.	.	.
2F\	[1A	2r	.
[2A\	.	[2c\	.
=9	=9	=9	=9
4A\]	0A]	4c\]	0r
4G\	.	4B\	.
4F\	.	4A/	.
4E\	.	4G/	.
1D	.	2.F/	.
.	.	4E/	.
=10	=10	=10	=10
2.C/	0c	1G	2.e/
4D\	.	.	4f/
2E\	.	2r	2g/
2F\	.	2F/	2a/
=11	=11	=11	=11
2E\	0c	2G/	2g/
2F\	.	2A/	1f
1C	.	1G	.
.	.	.	2e/
=12	=12	=12	=12
1FF	0c	2.F/	0f
.	.	4G/	.
2r	.	2.A/	.
[2F\	.	.	.
.	.	4B\	.
=13	=13	=13	=13
4F\]	0r	2c\	0r
4E\	.	.	.
2D\	.	1B-	.
1C	.	.	.
.	.	2A/	.
=14	=14	=14	=14
1BB-	0d	1.B-i	0f
1r	.	.	.
.	.	4A/	.
.	.	4G/	.
=15	=15	=15	=15
2.C/	0c	1G	2.e/
4D\	.	.	4f/
2E\	.	2r	2g/
2F\	.	2F/	2a/
=16	=16	=16	=16
2E\	0c	2G/	2g/
2F\	.	2A/	1f
1C	.	1G	.
.	.	.	2e/
=17	=17	=17	=17
1FF	1c	2F/	2.f/
.	.	2.A/	.
.	.	.	4g/
1r	1A	.	4a/
.	.	4G/	4b-i\
.	.	4F/	[2a/
.	.	4E/	.
=18	=18	=18	=18
0D	0A	1D	4a/]
.	.	.	4g/
.	.	.	4f/
.	.	.	4e/
.	.	1r	1f
=19	=19	=19	=19
0C	0c	2.G/	1e
.	.	4F/	.
.	.	2.G/	2r
.	.	.	[2g/
.	.	4F/	.
=20	=20	=20	=20
1C	0r	4E/	4g/]
.	.	4D/	4f/
.	.	2C/	2.g/
1C	.	2r	.
.	.	.	4f/
.	.	2G/	4e/
.	.	.	4d/
=21	=21	=21	=21
1AA	0r	2A/	2c/
.	.	1A	1cc
1AA	.	.	.
.	.	4G/	4b\
.	.	4F/	4a/
=22	=22	=22	=22
1C	1r	1.E	1g
1r	1c	.	2e/
.	.	[2e\	[2g/
=23	=23	=23	=23
0r	0c	4e\]	4g/]
.	.	4d\	4f/
.	.	1c	1e
.	.	4B\	4d/
.	.	4A/	4c/
=24	=24	=24	=24
0r	0d	2G/	2B/
.	.	1A	2A/
.	.	.	1B
.	.	2G#i/	.
=25	=25	=25	=25
1r	0c	2A/	1A
.	.	4G/	.
.	.	4F/	.
1C	.	4G/	2r
.	.	4F/	.
.	.	4E/	2e/
.	.	4D/	.
=26	=26	=26	=26
0C	0r	1C	2.e/
.	.	.	4f/
.	.	2r	2g/
.	.	[2e\	[2a/
=27	=27	=27	=27
0D	0r	2e\]	4a/]
.	.	.	4g/
.	.	4d\	4f/
.	.	4c\	4e/
.	.	2.B\	1f
.	.	4A/	.
=28	=28	=28	=28
0C	1c	1c	2.e/
.	.	.	4f/
.	1c	2r	2g/
.	.	[2c\	2a/
=29	=29	=29	=29
0r	1c	4c\]	2g/
.	.	4B\	.
.	.	1A	1cc
.	1A	.	.
.	.	4G/	4b\
.	.	4F/	4a/
=30	=30	=30	=30
0r	1c	2E/	2g/
.	.	2A/	1a
.	1B	1E	.
.	.	.	2g#i/
=31	=31	=31	=31
1r	2A/	2.e\	2a/
.	1c	.	4g/
.	.	4f\	4f/
1C	.	4g\	2.e/
.	.	4f\	.
.	4B\	4e\	.
.	4A/	4d\	4f/
=32	=32	=32	=32
1C	2G/	2c\	4g/
.	.	.	4f/
.	2A/	4B\	4e/
.	.	4A/	4d/
1C	2E/	4G/	2c/
.	.	4F/	.
.	2G/	4E/	[2cc\
.	.	4D/	.
=33	=33	=33	=33
1AA	2A/	2E/	2cc\]
.	1c	2C/	4b\
.	.	.	4a/
1C	.	2r	[1g
.	4B\	[2E/	.
.	4A/	.	.
=34	=34	=34	=34
0BB	2G/	2E/]	2g/]
.	1A	4D/	4f/
.	.	4C/	4e/
.	.	1D	1d
.	2G#i/	.	.
=35	=35	=35	=35
0AA	1A	1E	1c
.	1E	2r	1r
.	.	2C/	.
=36	=36	=36	=36
0r	1A	1F	2.c/
.	.	.	4d/
.	2G/	2E/	2e/
.	[2A/	[2D/	[2f/
=37	=37	=37	=37
0r	4A/]	4D/]	4f/]
.	4G/	4E/	4e/
.	2E/	2C/	1e
.	1F	1D	.
.	.	.	2d/
=38	=38	=38	=38
[0AAl	[0El	2.A/	[0el
.	.	4G/	.
.	.	2A/	.
.	.	2B\	.
=39	=39	=39	=39
0AA]	0E]	0cl	0e]
!!LO:LB:i:g=z
=40||	=40||	=40||	=40||
*>B	*>B	*>B	*>B
*clefF4	*clefGv2	*clefGv2	*clefG2
*k[]	*k[]	*k[]	*k[]
*M2/1	*M2/1	*M2/1	*M2/1
*met(C|)	*met(C|)	*met(C|)	*met(C|)
!!section: Quia fecit mihi magna
!!!OMD: Quia fecit mihi magna
0r	0r	1G	0r
.	.	2A/	.
.	.	2c\	.
=41	=41	=41	=41
0r	0r	2B\	0r
.	.	2A/	.
.	.	4B\	.
.	.	4A/	.
.	.	4G/	.
.	.	4F/	.
=42	=42	=42	=42
0r	0r	2E/	1g
.	.	2e\	.
.	.	2f\	2a/
.	.	[2e\	2cc\
=43	=43	=43	=43
0r	0r	4e\]	2b\
.	.	4d\	.
.	.	2c\	2a/
.	.	4d\	4b\
.	.	4c\	4a/
.	.	4A/	4g/
.	.	4B\	4f/
=44	=44	=44	=44
1C	0r	1c	1e
2D\	.	2B\	2r
2F\	.	2A/	2a/
=45	=45	=45	=45
2E\	1r	3B\V	2g/
.	.	3c\	.
2D\	.	.	2f/
.	.	3d\Z	.
4E\	1G	2B\	4g/
4D\	.	.	4f/
4C/	.	2E/	4e/
4BB/	.	.	4d/
=46	=46	=46	=46
1AA	2A/	1E	2c/
.	2c\	.	2e/
1r	2B\	1r	2d/
.	[2d\	.	[2f/
=47	=47	=47	=47
0r	4d\]	1r	4f/]
.	4c\	.	4e/
.	1c	.	4d/
.	.	.	4c/
.	.	1G	1d
.	2B\	.	.
=48	=48	=48	=48
1AA	1c	2A/	1c
.	.	2c\	.
2GG/	1r	2B\	2r
2G\	.	[2d\	[2g/
=49	=49	=49	=49
2E\	0r	4d\]	4g/]
.	.	4c\	4f/
2F\	.	1c	1a
1D	.	.	.
.	.	2B\	4g/
.	.	.	4f/
=50	=50	=50	=50
1C	2r	1c	4e/
.	.	.	4f/
.	2c\	.	4g/
.	.	.	4a/
1r	2d\	2B\	4b\
.	.	.	4cc\
.	2B\	2G/	[2dd\
=51	=51	=51	=51
1r	2c\	2A/	4dd\]
.	.	.	4cc\
.	2e\	2c\	1cc
2r	1d	2G/	.
2G\	.	2g\	2b\
=52	=52	=52	=52
2A\	1c	2e\	2.cc\
2F\	.	2.f\	.
.	.	.	4b\
2G\	1r	.	1g
.	.	4d\	.
2B-i\	.	[2g\	.
=53	=53	=53	=53
1A	2r	2g\]	2a/
.	2c\	2f#i\	2cc\
1G	2d\	[1g	2b\
.	2B\	.	[2dd\
=54	=54	=54	=54
2r	2c\	2g\]	4dd\]
.	.	.	4cc\
2E\	2e\	2g\	1cc
2F\	1d	2a\	.
2G\	.	4g\	2b\
.	.	4f\	.
=55	=55	=55	=55
1C	0c	1e	2cc\
.	.	.	4a/
.	.	.	2cc\
2r	.	2d\	.
.	.	.	4b\
2C/	.	2c\	[2a/
=56	=56	=56	=56
2D\	0r	1B	2a/]
2E\	.	.	2g#i/
1AA	.	2A/	2a/
.	.	[2a\	[2cc\
=57	=57	=57	=57
2r	0r	4a\]	4cc\]
.	.	4g\	4b\
2AA/	.	1f	2a/
2BB/	.	.	1g
2C/	.	2e\	.
=58	=58	=58	=58
1FF	2c\	1f	2r
.	2c\	.	2cc\
1r	2c\	2r	2a/
.	2c\	[2F/	[2cc\
=59	=59	=59	=59
0r	2A/	4F/]	4cc\]
.	.	4G/	4b\
.	2c\	2A/	1a
.	1B	1E	.
.	.	.	2g#i/
=60	=60	=60	=60
2F\	1A	2A/	1a
2F\	.	2c\	.
2F\	1r	2d\	2r
2F\	.	[2f\	2a/
=61	=61	=61	=61
2D\	2r	4f\]	2a/
.	.	4e\	.
2F\	2A/	1d	2a/
1E	2B\	.	2g/
.	2G/	2c#i\	2e/
=62	=62	=62	=62
2D\	2A/	2d\	4f/
.	.	.	4e/
2C/	2c\	2e\	1a
2D\	1B	2f\	.
2E\	.	2e\	2g#i/
=63	=63	=63	=63
2AA/	1A	2c\	1a
2D\	.	2.f\	.
2E\	1r	.	2r
.	.	4e\	.
2C/	.	[2e\	[2cc\
=64	=64	=64	=64
2D\	2r	4e\]	4cc\]
.	.	4d\	4b\
2F\	2A/	1d	2a/
1E	2B\	.	2g/
.	2G/	2c#i\	2e/
=65	=65	=65	=65
2D\	2A/	2d\	4f/
.	.	.	4e/
2C/	2c\	2e\	1a
2D\	1B	2f\	.
2E\	.	2e\	2g#i/
=66	=66	=66	=66
2AA/	[0Al	2c\	[0al
1D	.	1f	.
4C/	.	4e\	.
4BB/	.	4d\	.
=67	=67	=67	=67
2D\	0A_	2f\	0a_
2C/	.	2e\	.
1AA	.	2.c\	.
.	.	4d\	.
=68	=68	=68	=68
2r	0A_	2e\	0a_
1D	.	1f	.
4C/	.	4e\	.
4BB/	.	4d\	.
=69	=69	=69	=69
2D\	0A_	2f\	0a_
2C/	.	1e	.
1D	.	.	.
.	.	2d\	.
=70	=70	=70	=70
0AAl	0A]	0el	0a]
!!LO:LB:i:g=z
=71||	=71||	=71||	=71||
*>C	*>C	*>C	*>C
*clefF4	*clefGv2	*clefGv2	*clefG2
*k[]	*k[]	*k[]	*k[]
*M2/1	*M2/1	*M2/1	*M2/1
*met(C|)	*met(C|)	*met(C|)	*met(C|)
!!!OMD: Fecit potentiam
!!section: Fecit potentiam
0r	0r	2G/	0g
.	.	4A/	.
.	.	4B\	.
.	.	2c\	.
.	.	[2c\	.
=72	=72	=72	=72
0r	0r	2c\]	0a
.	.	2B\	.
.	.	2c\	.
.	.	2d\	.
=73	=73	=73	=73
2C/	0r	1e	0cc
4D\	.	.	.
4E\	.	.	.
2F\	.	1A	.
[2F\	.	.	.
=74	=74	=74	=74
2F\]	0r	2r	1cc
2E\	.	2.e\	.
2F\	.	.	1cc
.	.	4d\	.
2G\	.	4c\	.
.	.	4B\	.
=75	=75	=75	=75
1A	0r	1c	1cc
1D	.	2.d\	1r
.	.	4c\	.
=76	=76	=76	=76
2r	0r	4B\	0r
.	.	4A/	.
2.A\	.	2.c\	.
4G\	.	4B\	.
4F\	.	4A/	.
4E\	.	4G/	.
=77	=77	=77	=77
1F	0r	1A	0r
2.G\	.	2G/	.
.	.	2B\	.
4F\	.	.	.
=78	=78	=78	=78
4E\	0r	2c\	0r
4D\	.	.	.
2.F\	.	2.d\	.
4E\	.	4c\	.
4D\	.	[2c\	.
4C/	.	.	.
=79	=79	=79	=79
1D	0r	2c\]	1r
.	.	2B\	.
2C/	.	1c	1cc
[2c\	.	.	.
=80	=80	=80	=80
2c\]	0r	0r	0dd
4B\	.	.	.
4A\	.	.	.
1B	.	.	.
=81	=81	=81	=81
2.c\	0r	2.e\	0cc
4B\	.	4d\	.
4A\	.	4c\	.
4G\	.	4B\	.
[2A\	.	[2c\	.
=82	=82	=82	=82
4A\]	0r	4c\]	0cc
4G\	.	4B\	.
4F\	.	4A/	.
4E\	.	4G/	.
1F	.	1A	.
=83	=83	=83	=83
2.G\	0r	1G	1.b
4F\	.	.	.
4E\	.	1r	.
4D\	.	.	.
[2F\	.	.	[2a/
=84	=84	=84	=84
4F\]	0r	0r	4a/]
4E\	.	.	4g/
4D\	.	.	1cc
4C/	.	.	.
1D	.	.	.
.	.	.	2b\
=85	=85	=85	=85
4C/	0r	2.G/	0cc
4D\	.	.	.
4E\	.	.	.
4F\	.	4F/	.
2G\	.	4E/	.
.	.	4D/	.
[2A\	.	[2F/	.
=86	=86	=86	=86
4A\]	0r	4F/]	0r
4G\	.	4E/	.
1c	.	4D/	.
.	.	4C/	.
.	.	1D	.
2B\	.	.	.
=87	=87	=87	=87
2c\	0r	1C	1cc
1A	.	.	.
.	.	1r	1cc
4G\	.	.	.
4F\	.	.	.
=88	=88	=88	=88
2E\	0r	4C/	1cc
.	.	4D/	.
1C	.	4E/	.
.	.	4F/	.
.	.	2G/	1cc
[2F\	.	[2A/	.
=89	=89	=89	=89
4F\]	0r	4A/]	1cc
4E\	.	4G/	.
2A\	.	1c	.
1G	.	.	1dd
.	.	2B\	.
=90	=90	=90	=90
1C	0r	2.c\	0cc
.	.	4d\	.
1C	.	1e	.
=91	=91	=91	=91
1C	0r	2A/	0r
.	.	1c	.
1AA	.	.	.
.	.	4B\	.
.	.	4A/	.
=92	=92	=92	=92
1C	0r	2G/	0r
.	.	1A	.
1BB	.	.	.
.	.	2G#i/	.
=93	=93	=93	=93
2.AA/	0r	1A	1cc
4BB/	.	.	.
4C/	.	1r	1cc
4D\	.	.	.
2E\	.	.	.
=94	=94	=94	=94
2F\	0r	0r	1cc
4E\	.	.	.
4D\	.	.	.
2C/	.	.	1a
2D\	.	.	.
=95	=95	=95	=95
2AA/	0r	0r	1cc
1A	.	.	.
.	.	.	1b
2G#i\	.	.	.
=96	=96	=96	=96
2A\	0r	1c	1a
4G\	.	.	.
4F\	.	.	.
2E\	.	1c	2r
2F\	.	.	2a/
=97	=97	=97	=97
2E\	0r	1c	2g/
2C/	.	.	2e/
2D\	.	1A	2f/
2C/	.	.	[2e/
=98	=98	=98	=98
4AA/	0r	1c	2e/]
4BB/	.	.	.
4C/	.	.	1a
4D\	.	.	.
1E	.	1B	.
.	.	.	2g#i/
=99	=99	=99	=99
0AAl	0r	0Al	0al
!!LO:LB:i:g=z
=100||	=100||	=100||	=100||
*>D	*>D	*>D	*>D
*clefF4	*clefGv2	*clefGv2	*clefG2
*k[]	*k[]	*k[]	*k[]
*M2/1	*M2/1	*M2/1	*M2/1
*met(C|)	*met(C|)	*met(C|)	*met(C|)
!!section: Esurientes implevit bonis
!!!OMD: Esurientes implevit bonis
1C	0r	0r	0r
2D\	.	.	.
[2F\	.	.	.
=101	=101	=101	=101
2F\]	0r	1G	0r
2E\	.	.	.
2F\	.	2A/	.
2C/	.	[2c\	.
=102	=102	=102	=102
1D	0r	2c\]	1d
.	.	2B\	.
2C/	.	2c\	2e/
2E\	.	2G/	[2g/
=103	=103	=103	=103
1D	1r	1A	2g/]
.	.	.	2f#i/
2GG/	1G	2G/	1g
[2C/	.	2E/	.
=104	=104	=104	=104
4C/]	2A/	1C	1r
4BB/	.	.	.
2AA/	1c	.	.
1GG	.	1D	[1g
.	2B\	.	.
=105	=105	=105	=105
2r	1c	1C	2g/]
2.C/	.	.	2e/
.	2r	1r	1c
4BB/	.	.	.
2AA/	[2c\	.	.
=106	=106	=106	=106
1GG	2c\]	1.G	1d
.	2B\	.	.
1C	1c	.	2c/
.	.	[2A/	[2cc\
=107	=107	=107	=107
0r	1d	2A/]	2cc\]
.	.	4G/	4b\
.	.	4F/	4a/
.	1d	1G	4b\
.	.	.	4a/
.	.	.	4g/
.	.	.	4f/
=108	=108	=108	=108
2.C/	1.c	2r	1e
.	.	1G	.
4D\	.	.	.
2E\	.	.	1r
[2F\	[2d\	[2A/	.
=109	=109	=109	=109
4F\]	4d\]	4A/]	2r
4E\	4c\	4G/	.
2C/	1c	1G	2e/
1D	.	.	1f
.	2B\	2F/	.
=110	=110	=110	=110
1C	1c	2G/	2e/
.	.	1c	2c/
1G	1r	.	1d
.	.	2B\	.
=111	=111	=111	=111
2C/	2r	1c	1c
2.c\	2c\	.	.
.	1c	1A	2r
4B\	.	.	.
2A\	.	.	2cc\
=112	=112	=112	=112
2G\	1d	1r	2b\
1F	.	.	1a
.	1c	1F	.
4E\	.	.	4g/
4D\	.	.	4f/
=113	=113	=113	=113
2C/	1c	2G/	2e/
2AA/	.	2A/	1a
1E	1r	1B	.
.	.	.	2g#i/
=114	=114	=114	=114
2.AA/	1c	2A/	1a
.	.	2.c\	.
4BB/	.	.	.
1C	1c	.	2r
.	.	4B\	.
.	.	2G/	2e/
=115	=115	=115	=115
2FF/	0c	2A/	2f/
2.C/	.	4G/	2e/
.	.	4F/	.
.	.	1E	2r
4BB/	.	.	.
2AA/	.	.	2e/
=116	=116	=116	=116
2D\	1A	2D/	2f/
2C/	.	2r	2e/
2FF/	1c	2A/	2f/
4C/	.	[2G/	2g/
4D\	.	.	.
=117	=117	=117	=117
4E\	1B	4G/]	2e/
4F\	.	4A/	.
2E\	.	2B\	2r
2AA/	1A	2c\	2e/
2D\	.	2F/	2f/
=118	=118	=118	=118
2r	0r	2c\	2e/
2D\	.	2d\	2f/
2C/	.	2e\	2g/
4F\	.	[2A/	2a/
4G\	.	.	.
=119	=119	=119	=119
2A\	[0Ai	4A/]	2e/
.	.	4B\	.
2AA/	.	2c\	2r
2r	.	2.A/	2e/
2D\	.	.	2f/
.	.	4B\	.
=120	=120	=120	=120
4C/	0A_	2c\	2e/
4AA/	.	.	.
2D\	.	2d\	2f/
2C/	.	1A	2e/
[2D\	.	.	[2f/
=121	=121	=121	=121
2D\]	0A_	2D/	4f/]
.	.	.	4e/
2C/	.	2E/	1e
1D	.	1F	.
.	.	.	2d/
=122	=122	=122	=122
0AAi	0A]	0Ei	0ei
!!LO:LB:i:g=z
=123||	=123||	=123||	=123||
*>E	*>E	*>E	*>E
*clefF4	*clefGv2	*clefGv2	*clefG2
*k[]	*k[]	*k[]	*k[]
*M2/1	*M2/1	*M2/1	*M2/1
*met(C|)	*met(C|)	*met(C|)	*met(C|)
!!section: Sicut locutus est
!!!OMD: Sicut locutus est
0r	1r	0r	0r
.	1G	.	.
=124	=124	=124	=124
0r	2.A/	0r	0r
.	4B\	.	.
.	2c\	.	.
.	[2d\	.	.
=125	=125	=125	=125
0r	4d\]	1r	0r
.	4c\	.	.
.	1c	.	.
.	.	1G	.
.	2B\	.	.
=126	=126	=126	=126
0r	2.c\	2.A/	0r
.	4B\	4B\	.
.	4A/	2c\	.
.	4G/	.	.
.	[2F/	[2d\	.
=127	=127	=127	=127
1r	2F/]	4d\]	0r
.	.	4c\	.
.	2E/	1c	.
1GG	1D	.	.
.	.	2B\	.
=128	=128	=128	=128
2.AA/	1C	2.c\	0r
4BB/	.	4B\	.
2C/	1r	4A/	.
.	.	4G/	.
[2D\	.	[2F/	.
=129	=129	=129	=129
4D\]	1r	2F/]	0r
4C/	.	.	.
1C	.	2E/	.
.	1F	1D	.
2BB/	.	.	.
=130	=130	=130	=130
1C	2E/	2C/	0r
.	2C/	1c	.
1r	1D	.	.
.	.	2B\	.
=131	=131	=131	=131
1C	2C/	1c	0r
.	2E/	.	.
2BB/	2D/	1r	.
2GG/	[2G/	.	.
=132	=132	=132	=132
1AA	2G/]	1c	0r
.	2F#i/	.	.
2GG/	1G	2B\	.
[2G\	.	2G/	.
=133	=133	=133	=133
2G\]	2r	1A	0r
2F\	2c\	.	.
2G\	2B\	2G/	.
2E\	2G/	[2G/	.
=134	=134	=134	=134
2r	1A	2G/]	0r
2F\	.	2F/	.
2E\	2G/	1G	.
2C/	[2c\	.	.
=135	=135	=135	=135
1D	2c\]	2r	0r
.	2B\	2f\	.
2C/	1c	2e\	.
[2c\	.	2c\	.
=136	=136	=136	=136
2c\]	1r	1d	0r
2B\	.	.	.
1c	1c	2c\	.
.	.	2e\	.
=137	=137	=137	=137
1r	2B\	2d\	0r
.	2G/	1g	.
2C/	1A	.	.
2D\	.	2f#i\	.
=138	=138	=138	=138
2BB/	2G/	1g	0r
2C/	1G	.	.
1AA	.	2r	.
.	2F#i/	2c\	.
=139	=139	=139	=139
2GG/	1G	2B\	0r
1G	.	2G/	.
.	2r	1A	.
2F#i\	2c\	.	.
=140	=140	=140	=140
1.G	2.B\	1G	0r
.	4c\	.	.
.	4d\	1r	.
.	4e\	.	.
[2A\	[2f\	.	.
=141	=141	=141	=141
4A\]	4f\]	0r	0r
4G\	4e\	.	.
2E\	1e	.	.
1F	.	.	.
.	2d\	.	.
=142	=142	=142	=142
1.E	1e	2.G/	0r
.	.	4A/	.
.	1r	4B\	.
.	.	4c\	.
[2F\	.	[2d\	.
=143	=143	=143	=143
4F\]	1r	4d\]	0r
4E\	.	4c\	.
2C/	.	1c	.
1D	1f	.	.
.	.	2B\	.
=144	=144	=144	=144
2.C/	1.e	1c	0r
4D\	.	.	.
4E\	.	1r	.
4F\	.	.	.
[2G\	[2d\	.	.
=145	=145	=145	=145
4G\]	4d\]	1r	0r
4C/	4c\	.	.
2E\	1c	.	.
1D	.	1f	.
.	2B\	.	.
=146	=146	=146	=146
1C	2c\	1.e	0r
.	4C/	.	.
.	4D/	.	.
2r	4E/	.	.
.	4F/	.	.
[2BB/	[2G/	[2d\	.
=147	=147	=147	=147
2BB/]	4G/]	4d\]	0r
.	4C/	4c\	.
2C/	2E/	1c	.
1GG	1D	.	.
.	.	2B\	.
=148	=148	=148	=148
2.AA/	1C	2c\	0r
.	.	4C/	.
4BB/	.	4D/	.
4C/	1r	4E/	.
4D\	.	4F/	.
[2E\	.	[2G/	.
=149	=149	=149	=149
4E\]	0r	4G/]	0r
4AA/	.	4E/	.
2C/	.	1A	.
1BB	.	.	.
.	.	2G#i/	.
=150	=150	=150	=150
1AA	1.c	2.A/	0r
.	.	4B\	.
2r	.	2c\	.
[2G\	[2B\	[2d\	.
=151	=151	=151	=151
2G\]	4B\]	4d\]	0r
.	4A/	4c\	.
2A\	1A	4B\	.
.	.	4A/	.
1E	.	1B	.
.	2G#i/	.	.
=152	=152	=152	=152
1.AA	2.A/	2A/	0r
.	.	2.c\	.
.	4B\	.	.
.	2c\	.	.
.	.	4B\	.
[2GG/	[2d\	[2B\	.
=153	=153	=153	=153
2GG/]	4d\]	4B\]	0r
.	4c\	4A/	.
2AA/	4B\	1A	.
.	4A/	.	.
1E	1B	.	.
.	.	2G#i/	.
=154	=154	=154	=154
2.AA/	2A/	2.A/	0r
.	2.c\	.	.
4BB/	.	4G/	.
4C/	.	4E/	.
4D\	4B\	4F/	.
[2E\	[2B\	[2G/	.
=155	=155	=155	=155
4E\]	4B\]	4G/]	0r
4AA/	4A/	4F/	.
2C/	1A	1E	.
1BB	.	.	.
.	2G#i/	2D/	.
=156	=156	=156	=156
0AAl	0Al	0El	0r
!!LO:LB:i:g=z
=157||	=157||	=157||	=157||
*>F	*>F	*>F	*>F
*clefF4	*clefGv2	*clefGv2	*clefG2
*k[]	*k[]	*k[]	*k[]
*M2/1	*M2/1	*M2/1	*M2/1
*met(C|)	*met(C|)	*met(C|)	*met(C|)
!!section: Sicut erat in principio
!!!OMD: Sicut erat in principio
0r	0D	0r	1.d
.	.	.	2d/
=158	=158	=158	=158
0r	0E	0r	2B/
.	.	.	1e
.	.	.	4d/
.	.	.	4c/
=159	=159	=159	=159
0r	0G	0r	2e/
.	.	.	2d/
.	.	.	2B/
.	.	.	2c/
=160	=160	=160	=160
0GG	0G	1.G	2d/
.	.	.	1c
.	.	2G/	2B/
=161	=161	=161	=161
0AA	0r	2E/	1c
.	.	1A	.
.	.	.	1r
.	.	4G/	.
.	.	4F/	.
=162	=162	=162	=162
0C	0r	2A/	0r
.	.	2G/	.
.	.	2E/	.
.	.	2F/	.
=163	=163	=163	=163
0C	0G	1G	1.g
.	.	2r	.
.	.	2E/	2g/
=164	=164	=164	=164
0r	0A	2C/	2e/
.	.	1F	1a
.	.	4E/	4g/
.	.	4D/	4f/
=165	=165	=165	=165
0r	0c	2F/	2a/
.	.	2E/	2g/
.	.	2C/	2e/
.	.	2D/	2f/
=166	=166	=166	=166
1C	0c	1E	1g
1C	.	2r	1e
.	.	2G/	.
=167	=167	=167	=167
1C	0r	2G/	1r
.	.	2G/	.
1C	.	2.A/	2r
.	.	.	2g/
.	.	4G/	.
=168	=168	=168	=168
0C	1c	1E	2g/
.	.	.	2g/
.	1c	2r	2a/
.	.	2G/	4g/
.	.	.	4f/
=169	=169	=169	=169
0r	1c	2G/	1e
.	.	2G/	.
.	1c	2.A/	2r
.	.	.	2g/
.	.	4G/	.
=170	=170	=170	=170
0C	0c	1E	2g/
.	.	.	2g/
.	.	2C/	4a/
.	.	.	4g/
.	.	[2c\	4f/
.	.	.	4e/
=171	=171	=171	=171
0D	0r	2c\]	2d/
.	.	4B\	2e/
.	.	4A/	.
.	.	1B	1f
=172	=172	=172	=172
0C	0c	1c	0e
.	.	2r	.
.	.	[2A/	.
=173	=173	=173	=173
0BB	0d	2A/]	0r
.	.	4G#i/	.
.	.	4F#i/	.
.	.	1G#i	.
=174	=174	=174	=174
0AA	1c	2A/	1.e
.	.	1c	.
.	1r	.	.
.	.	4B\	2d/
.	.	4A/	.
=175	=175	=175	=175
0C	2.c\	1G	2e/
.	.	.	2f/
.	4d\	.	.
.	4e\	2C/	1g
.	4f\	.	.
.	[2e\	[2G/	.
=176	=176	=176	=176
0r	4e\]	2G/]	1e
.	4d\	.	.
.	1c	4F/	.
.	.	4E/	.
.	.	1D	1f
.	2B\	.	.
=177	=177	=177	=177
0AA	1c	1C	1e
.	1r	1r	1r
=178	=178	=178	=178
0C	1c	1G	1e
.	1c	1G	1e
=179	=179	=179	=179
1C	1c	1G	1e
1C	1c	1G	1e
=180	=180	=180	=180
1C	1c	1G	1e
1r	1r	1r	1r
=181	=181	=181	=181
0C	1c	2E/	1.e
.	.	2.G/	.
.	1c	.	.
.	.	4F/	.
.	.	4E/	[2g/
.	.	4D/	.
=182	=182	=182	=182
1C	1c	2C/	4g/]
.	.	.	4f/
.	.	2D/	4e/
.	.	.	4d/
1C	2.A/	1E	2c/
.	.	.	2d/
.	4B\	.	.
=183	=183	=183	=183
1AA	2c\	0C	1.e
.	4B\	.	.
.	4A/	.	.
1C	2G/	.	.
.	[2A/	.	4d/
.	.	.	4c/
=184	=184	=184	=184
0BB	2A/]	1r	2d/
.	4G#i/	.	2c/
.	4F#i/	.	.
.	1G#i	1D	1d
=185	=185	=185	=185
0AA	2.A/	1E	2.c/
.	4B\	.	4d/
.	2c\	2C/	2e/
.	[2A/	[2D/	[2f/
=186	=186	=186	=186
0r	4A/]	4D/]	4f/]
.	4G/	4E/	4e/
.	2E/	2C/	1e
.	1F	1D	.
.	.	.	2d/
=187	=187	=187	=187
[0AAl	[0El	2.A/	[0el
.	.	4G/	.
.	.	2A/	.
.	.	2B\	.
=188	=188	=188	=188
0AA]	0E]	0cl	0e]
==	==	==	==
*-	*-	*-	*-
!!!RDF**kern: V=start of tuplet marker
!!!RDF**kern: Z=end of tuplet marker
!!!RDF**kern: l=long note in original notation
!!!RDF**kern: i=editorial accidental
!!!ENC:	Jesse Rodin; Victoria Chang 2011/05/24
!!!SMS: BerlS 40021
!!!END:	2011/05/24/
!!!EED:	Jesse Rodin
!!!EEV:	2013/10/25/
!!attribution-level@Jos: 2 (slightly less secure)
!!!ONB:	Translated from MusicXML and edited on 2011/08/18/ by Craig Sapp
!!muse2ps: C^@{COA}?\n@{SCT}^I150v90,90,90,150c95i2I150Q16
